X:690
T:I'll get wedded in my auld claes
T:Hexham quadrille
R:Jig
O:England
A:Northumbria
S:Richard Darsie's web page
Z:Transcription, chords:Mike Long
M:6/8
L:1/8
K:G
f|\
"G"gfg dBG|"G"BAG "C"E2D|"G"GAB BAG|"G"GBe "D"def|\
"G"gfg dBG|"G"BAG "C"E2D|"G"GBd "D"DFA|"G"BGG G2:|
|:B|\
"C"c2A "D"F2D|"G"G2B d2B|"C"cec "D"AFD|"G"GBd gfa|\
"G"gdB GBd|"C"ecA "D"FAc|"G"dBG "D"DFA|"G"BGG G2:|
|:d|\
"G"dBd gbg|"C"ece a2g|"D"faf def|"G"gba "D"gfe|\
"G"dBd gbg|"C"ece a2g|"D"fed cBA|"G"BGG G2:|
